X:3465
T:Cotilion,A. BF13.082
M:6/8
Q:110
S:J.Lishman(?)MS,c1825,Lakes,Browne Coll.
R:Cotillion
O:England
A:Lakes
Z:vmp.Chris Partington
K:G
B2AB2A|G2G GAB|c2Bc2B|A2A ABc|!
c2e edc|Bcd dBG|ABc cAF|G2GG3::!
dBd dBd|e2ee3|cAc cAc|d2dd3|!
G2DB2G|d2Bg2d|edc BAG|A2DD3:|]


